assets/svg/icon_feed_addfile.svg

<svg width="24" height="24" viewBox="0 0 24 24" fill="none" xmlns="http://www.w3.org/2000/svg">
<path d="M14.4311 6.14993L14.8613 5.73168L14.4311 6.14993ZM17.1219 8.91754L16.6917 9.33579L17.1219 8.91754ZM18.6867 10.8887L18.1277 11.1065V11.1065L18.6867 10.8887ZM6.12443 19.1803L6.57597 18.7852H6.57597L6.12443 19.1803ZM18.1256 19.1803L17.674 18.7852H17.674L18.1256 19.1803ZM13.4844 19.4904H10.7656V20.6904H13.4844V19.4904ZM5.92813 13.8761V10.769H4.72812V13.8761H5.92813ZM18.3219 13.5366V13.8761H19.5219V13.5366H18.3219ZM14.0009 6.56818L16.6917 9.33579L17.5521 8.49929L14.8613 5.73168L14.0009 6.56818ZM19.5219 13.5366C19.5219 12.2215 19.5315 11.4042 19.2458 10.6708L18.1277 11.1065C18.3122 11.5801 18.3219 12.1258 18.3219 13.5366H19.5219ZM16.6917 9.33579C17.6103 10.2807 17.9465 10.6418 18.1277 11.1065L19.2458 10.6708C18.9565 9.92862 18.4063 9.37796 17.5521 8.49929L16.6917 9.33579ZM10.7859 5.15469C11.8727 5.15469 12.2413 5.16629 12.57 5.31042L13.0519 4.21146C12.44 3.94308 11.7721 3.95469 10.7859 3.95469V5.15469ZM14.8613 5.73168C14.1305 4.97996 13.6554 4.47609 13.0519 4.21146L12.57 5.31042C12.9072 5.45829 13.1986 5.74291 14.0009 6.56818L14.8613 5.73168ZM10.7656 19.4904C9.46469 19.4904 8.55783 19.4887 7.87354 19.3836C7.21562 19.2825 6.84894 19.0972 6.57597 18.7852L5.67288 19.5754C6.19623 20.1735 6.86851 20.4433 7.69129 20.5697C8.48771 20.6921 9.5033 20.6904 10.7656 20.6904V19.4904ZM4.72812 13.8761C4.72812 15.3259 4.72715 16.4662 4.83177 17.3556C4.93757 18.2549 5.15963 18.9889 5.67288 19.5754L6.57597 18.7852C6.29293 18.4618 6.11683 18.0083 6.02355 17.2154C5.9291 16.4125 5.92813 15.3557 5.92813 13.8761H4.72812ZM13.4844 20.6904C14.7467 20.6904 15.7623 20.6921 16.5587 20.5697C17.3815 20.4433 18.0538 20.1735 18.5771 19.5754L17.674 18.7852C17.4011 19.0972 17.0344 19.2825 16.3765 19.3836C15.6922 19.4887 14.7853 19.4904 13.4844 19.4904V20.6904ZM18.3219 13.8761C18.3219 15.3557 18.3209 16.4125 18.2264 17.2154C18.1332 18.0083 17.9571 18.4618 17.674 18.7852L18.5771 19.5754C19.0904 18.9889 19.3124 18.2549 19.4182 17.3556C19.5229 16.4662 19.5219 15.3259 19.5219 13.8761H18.3219ZM5.92813 10.769C5.92813 9.28936 5.9291 8.23255 6.02355 7.42969C6.11683 6.63678 6.29293 6.18334 6.57597 5.85985L5.67288 5.06965C5.15963 5.65622 4.93757 6.39017 4.83177 7.28949C4.72715 8.17887 4.72812 9.31914 4.72812 10.769H5.92813ZM10.7859 3.95469C9.51674 3.95469 8.49632 3.95305 7.69676 4.07534C6.87129 4.2016 6.19672 4.47098 5.67288 5.06965L6.57597 5.85985C6.84844 5.54846 7.21621 5.3628 7.8782 5.26155C8.5661 5.15633 9.47825 5.15469 10.7859 5.15469V3.95469ZM12.2047 4.94308V6.88504H13.4047V4.94308H12.2047ZM16.2031 11.369H18.9219V10.169H16.2031V11.369ZM12.2047 6.88504C12.2047 7.78561 12.2037 8.51393 12.271 9.08601C12.3395 9.66804 12.4869 10.1793 12.8508 10.5953L13.7539 9.80508C13.6202 9.65224 13.5187 9.42142 13.4628 8.94581C13.4057 8.46024 13.4047 7.81538 13.4047 6.88504H12.2047ZM16.2031 10.169C15.3828 10.169 14.8364 10.1673 14.4297 10.1048C14.0495 10.0464 13.8776 9.9464 13.7539 9.80508L12.8508 10.5953C13.2249 11.0228 13.7023 11.2072 14.2475 11.2909C14.7663 11.3706 15.4214 11.369 16.2031 11.369V10.169Z" fill="#0166FF"/>
</svg>

<svg xmlns="http://www.w3.org/2000/svg" width="24" height="24" fill="none"><path fill="#0166FF" d="m14.431 6.15.43-.418zm2.69 2.768-.43.418zm1.566 1.97-.56.219zM6.124 19.18l.452-.395zm12.002 0-.452-.395zm-4.642.31h-2.718v1.2h2.718zm-7.556-5.614V10.77h-1.2v3.107zm12.394-.34v.34h1.2v-.34zM14 6.569l2.69 2.768.861-.837-2.69-2.767zm5.52 6.969c0-1.315.01-2.133-.275-2.866l-1.118.436c.184.473.194 1.019.194 2.43zm-2.83-4.201c.92.945 1.256 1.306 1.437 1.77l1.118-.435c-.29-.742-.84-1.293-1.694-2.172zm-5.905-4.181c1.087 0 1.455.011 1.784.155l.482-1.099c-.612-.268-1.28-.256-2.266-.256zm4.075.577c-.73-.752-1.206-1.256-1.81-1.52L12.57 5.31c.337.148.629.433 1.43 1.258zM10.766 19.49c-1.301 0-2.208-.001-2.892-.106-.658-.102-1.025-.287-1.298-.599l-.903.79c.523.599 1.196.868 2.018.995.797.122 1.812.12 3.075.12zm-6.038-5.614c0 1.45 0 2.59.104 3.48.106.899.328 1.633.84 2.22l.904-.79c-.283-.324-.46-.778-.552-1.57-.095-.803-.096-1.86-.096-3.34zm8.756 6.814c1.263 0 2.278.002 3.075-.12.822-.127 1.495-.396 2.018-.995l-.903-.79c-.273.312-.64.497-1.297.599-.685.105-1.592.106-2.893.106zm4.838-6.814c0 1.48-.001 2.537-.096 3.34-.093.792-.269 1.246-.552 1.57l.903.79c.513-.587.735-1.321.841-2.22.105-.89.104-2.03.104-3.48zM5.928 10.77c0-1.48.001-2.536.096-3.34.093-.792.269-1.246.552-1.57l-.903-.79c-.513.587-.735 1.321-.841 2.22-.105.89-.104 2.03-.104 3.48zm4.858-6.814c-1.27 0-2.29-.002-3.09.12-.825.127-1.5.396-2.023.995l.903.79c.272-.312.64-.497 1.302-.598.688-.106 1.6-.107 2.908-.107zm1.419.988v1.942h1.2V4.943zm3.998 6.426h2.719v-1.2h-2.719zm-3.998-4.484c0 .9-.001 1.629.066 2.201.068.582.216 1.093.58 1.51l.903-.79c-.134-.154-.235-.385-.291-.86-.057-.486-.058-1.13-.058-2.061zm3.998 3.284c-.82 0-1.367-.002-1.773-.064-.38-.059-.552-.159-.676-.3l-.903.79c.374.428.851.612 1.396.696.52.08 1.174.078 1.956.078z"/></svg>
